X: 15
T: Disconnect
C: Jeremy Kittel
R: jig
S: Roaring Jelly handout at practice 2017-1-24
S: https://thesession.org/tunes/14681
M: 6/8
L: 1/8
K: Emin
|:\
"Em"~E2-E BEc- | cBA Bcd | "D"~D2-D ADB- | BAG F2G |\
"Em"~E2-E BEc- | cBA Bcd | "D"~D2-D Bcd |1 "Bm"DGD A2 B :|2 "Bm"~D2-D "(G7)"Bcd ||
|:\
"C"e2G GFG | "D"A3 ABc | "Bm"d2F FEF | "Em"G2A "(G7)"Bcd |\
"C"e2G GFG | "D"A3 Adc | "Em"BAG "D"FED |1 "Em"EFG "D"ABd :|2 "Em"EFG "Bm"FDB, |]

%%sep 1 1 500

